Newaita-dark/apps/22/mxtools-icon-96.svg

<svg height="22" viewBox="0 0 22 22" width="22" xmlns="http://www.w3.org/2000/svg" xmlns:xlink="http://www.w3.org/1999/xlink"><linearGradient id="a" gradientUnits="userSpaceOnUse" x1="10.9151136" x2="10.9151136" y1="19.27333715" y2="20.18293042919"><stop offset="0" stop-opacity=".27451"/><stop offset="1" stop-opacity="0"/></linearGradient><linearGradient id="b"><stop offset="0" stop-opacity=".313726"/><stop offset=".222222" stop-opacity=".27451"/><stop offset="1" stop-opacity="0"/></linearGradient><radialGradient id="c" cx="450.908936" cy="189.579361" gradientTransform="matrix(.00000012 -.0537161 -.0966889 -.00000007 35.839821 43.721791)" gradientUnits="userSpaceOnUse" r="21.166656" xlink:href="#b"/><radialGradient id="d" cx="450.908936" cy="189.579361" gradientTransform="matrix(-.00000012 .0537161 .0966889 .00000007 -14.009609 -5.175142)" gradientUnits="userSpaceOnUse" r="21.166656" xlink:href="#b"/><radialGradient id="e" cx="450.908936" cy="189.579361" gradientTransform="matrix(-.00000012 -.0537161 .0966889 -.00000007 -14.009609 43.721791)" gradientUnits="userSpaceOnUse" r="21.166656" xlink:href="#b"/><radialGradient id="f" cx="450.908936" cy="189.579361" gradientTransform="matrix(.00000012 .0537161 -.0966889 .00000007 35.839819 -5.175142)" gradientUnits="userSpaceOnUse" r="21.166656" xlink:href="#b"/><linearGradient id="g" gradientUnits="userSpaceOnUse" x1="7.27674417081" x2="7.27674417081" y1="19.27333515" y2="1.99106765838"><stop offset="0" stop-color="#42a5f5"/><stop offset="1" stop-color="#64b5f6"/></linearGradient><linearGradient id="h" gradientUnits="userSpaceOnUse" x1="10.9151166" x2="10.9151166" y1="19.27333712846" y2="1.99106894927"><stop offset="0" stop-color="#bdbdbd"/><stop offset="1" stop-color="#e0e0e0"/></linearGradient><path d="m4.09375 19.207031h13.644531v1.007813h-13.644531zm0 0" fill="url(#a)"/><path d="m17.738281 19.273438h1.816407v-.910157h-1.816407zm0 0" fill="url(#c)"/><path d="m4.09375 19.273438h-1.820312v.910156h1.820312zm0 0" fill="url(#d)"/><path d="m4.09375 19.273438h-1.820312v-.910157h1.820312zm0 0" fill="url(#e)"/><path d="m17.738281 19.273438h1.816407v.910156h-1.816407zm0 0" fill="url(#f)"/><path d="m3.183594 1.992188h15.464844c.5 0 .90625.40625.90625.910156v15.460937c0 .503907-.40625.910157-.90625.910157h-15.464844c-.503906 0-.910156-.40625-.910156-.910157v-15.460937c0-.503906.40625-.910156.910156-.910156zm0 0" fill="url(#g)"/><path d="m3.183594 2.046875c-.503906 0-.910156.40625-.910156.910156v.113281c0-.503906.40625-.910156.910156-.910156h15.464844c.503906 0 .90625.40625.90625.910156v-.113281c0-.503906-.402344-.910156-.90625-.910156zm0 0" fill="#e6e6e6" fill-opacity=".392157"/><path d="m3.183594 19.214844c-.503906 0-.910156-.402344-.910156-.90625v-.117188c0 .503906.40625.910156.910156.910156h15.464844c.503906 0 .90625-.40625.90625-.910156v.117188c0 .503906-.402344.90625-.90625.90625zm0 0" fill-opacity=".196078"/><path d="m16.332031 4.902344-1.96875.527344c-.113281.03125-.207031.097656-.277343.183593l-.066407-.25c-.046875.105469-.058593.230469-.027343.351563l.09375.351562c.070312-.085937.164062-.148437.277343-.179687l2.320313-.621094c-.0625-.074219-.125-.144531-.1875-.210937-.054688-.054688-.109375-.105469-.164063-.152344zm-5.957031.890625c-.027344.070312-.074219.140625-.132812.199219l-.445313.445312-.175781-.179688-.230469.226563.40625.40625.445313-.445313c.179687-.175781.222656-.433593.132812-.652343zm1.703125.863281-.050781.050781c0-.011719 0-.027343-.003906-.042969-.011719.164063-.011719.332032.003906.5l.15625-.15625c-.027344-.078124-.054688-.160156-.078125-.246093-.007813-.035157-.019531-.070313-.027344-.105469zm5.144531.632812-.121094.03125c-.277343.78125-.925781 1.417969-1.789062 1.652344-.578125.152344-1.15625.105469-1.667969-.105468l-.707031.707031-.179688-.179688-.226562.226563.40625.410156.707031-.707031c.511719.207031 1.089844.253906 1.667969.101562 1.039062-.277343 1.761719-1.140625 1.910156-2.136719zm-12.222656.207032c-.089844.21875-.042969.476562.132812.652344l1.277344 1.277343c.234375.238281.617188.238281.851563 0l.996093-.992187 1.25 1.25.40625-.40625-.226562-.226563-.179688.179688-1.25-1.25-.996093.992187c-.234375.234375-.617188.234375-.851563 0l-1.277344-1.277344c-.058593-.058593-.101562-.125-.132812-.199218zm6.394531 3.621094-.792969.792968-.140624-.21875-.175782.175782.316406.496093.792969-.792969 2.015625 2.019532.347656-.464844-.191406-.195312-.15625.203124zm6.992188 5.707031c-.09375.257812-.332031.460937-.648438.460937h-13.644531c-.316406 0-.558594-.199218-.648438-.457031-.152343.429687.160157.914063.648438.914063h13.644531c.492188 0 .800781-.492188.648438-.917969zm0 0" fill-opacity=".235294"/><path d="m74.083834-168.640791h359.874725c11.635253 0 21.088895 9.453643 21.088895 21.179796v359.783824c0 11.726153-9.453642 21.179796-21.088895 21.179796h-359.874725c-11.726152 0-21.179795-9.453643-21.179795-21.179796v-359.783824c0-11.726153 9.453643-21.179796 21.179795-21.179796zm0 0" fill="none" stroke="#212121" stroke-linecap="round" stroke-width="3" transform="matrix(.0429729 0 0 .0429729 0 9.239163)"/><path d="m8.539062 3.765625c-.152343 0-.308593.058594-.425781.179687l-2.980469 2.980469c-.234374.234375-.234374.617188 0 .851563l1.277344 1.277344c.234375.234374.617188.234374.851563 0l.996093-.992188 1.65625 1.65625-.789062.789062-.359375-.5625c-.128906-.199218-.347656-.316406-.578125-.316406-.234375 0-.453125.117188-.578125.316406l-4.09375 6.367188c-.292969.453125.035156 1.054688.578125 1.054688h13.644531c.5625 0 .886719-.644532.546875-1.097657l-2.726562-3.636719c-.175782-.234374-.460938-.316406-.714844-.253906l-2.3125-2.316406 1.113281-1.113281c.511719.210937 1.089844.257812 1.667969.105469 1.039062-.28125 1.761719-1.140626 1.910156-2.140626l-2.316406.621094c-.28125.074219-.566406-.089844-.644531-.371094l-.269531-1.007812c-.074219-.28125.089843-.566406.371093-.644531l2.320313-.621094c-.0625-.074219-.125-.144531-.1875-.210937-.640625-.644532-1.597656-.9375-2.539063-.683594-1.402343.375-2.226562 1.804687-1.851562 3.207031.023437.082031.050781.164063.078125.246094l-1.132813 1.132812-1.660156-1.65625.851563-.851562c.238281-.238281.238281-.617188 0-.851563l-1.277344-1.277344c-.117188-.121093-.269532-.179687-.425782-.179687zm2.855469 7.433594 2.363281 2.363281-1.433593 1.917969-2.039063-3.171875zm0 0" fill="url(#h)"/><path d="m8.539062 3.765625c-.152343 0-.308593.058594-.425781.179687l-2.980469 2.980469c-.152343.152344-.207031.367188-.160156.5625.023438-.109375.078125-.210937.160156-.292969l2.980469-2.980468c.117188-.117188.273438-.175782.425781-.175782.15625 0 .308594.058594.425782.175782l1.277344 1.277344c.085937.082031.136718.183593.164062.289062.042969-.195312-.007812-.40625-.164062-.558594l-1.277344-1.277344c-.117188-.121093-.269532-.179687-.425782-.179687zm6.078126.140625c-.21875 0-.441407.03125-.660157.089844-1.21875.328125-2 1.449218-1.9375 2.660156.054688-1.101562.808594-2.085938 1.9375-2.390625.21875-.058594.441407-.085937.660157-.089844.710937-.003906 1.382812.277344 1.871093.769531l.195313-.054687c-.0625-.074219-.125-.144531-.1875-.210937-.492188-.492188-1.164063-.78125-1.878906-.773438zm-.585938 2.386719c-.058594.113281-.074219.242187-.039062.371093.007812-.035156.023437-.066406.039062-.097656l.230469.871094c.078125.28125.363281.445312.644531.371094l2.257812-.605469c.023438-.09375.046876-.191406.058594-.289063l-2.316406.621094c-.28125.074219-.566406-.089844-.644531-.371094zm-4.382812.886719-.257813.253906.136719.136718.121094-.121093 1.402343 1.40625 1.019531-1.023438c.011719.050781.023438.101563.035157.152344.003906.011719.007812.027344.011719.042969l.066406-.070313c-.027344-.078125-.054688-.160156-.078125-.246093-.011719-.046876-.023438-.097657-.035157-.148438l-1.019531 1.019531zm-1.460938 2.449218c-.234375 0-.453125.117188-.578125.316406l-4.09375 6.367188c-.105469.160156-.128906.339844-.097656.503906.019531-.082031.050781-.160156.097656-.234375l4.09375-6.367187c.125-.195313.34375-.316406.578125-.316406.230469 0 .449219.121093.578125.316406l.359375.5625.535156-.53125.117188.117187.136718-.132812-.253906-.257813-.535156.535156-.359375-.5625c-.128906-.199218-.347656-.316406-.578125-.316406zm4.597656.691406-.253906.253907.132812.136719.121094-.121094 2.058594 2.058594c.253906-.0625.539062.023437.714844.253906l2.726562 3.636718c.066406.089844.105469.179688.125.277344.039063-.179687.003906-.378906-.125-.546875l-2.726562-3.636719c-.175782-.234374-.460938-.316406-.714844-.253906zm-2.300781 2.300782-.199219.199218.105469.164063.09375-.09375 1.839844 2.859375 1.214843-1.625.105469.105469.113281-.15625-.21875-.21875-1.214843 1.625zm0 0" fill="#fff" fill-opacity=".588235"/><path d="m198.708297-127.372004c-3.545116 0-7.181132 1.363506-9.908145 4.181418l-69.357013 69.357014c-5.454024 5.454024-5.454024 14.362264 0 19.816289l29.724434 29.724434c5.454025 5.454025 14.362265 5.454025 19.81629 0l23.179604-23.088704 38.541774 38.541774-18.361882 18.361883-8.362838-13.089659c-2.999714-4.635921-8.090137-7.362933-13.453261-7.362933-5.454025 0-10.544448 2.727012-13.453261 7.362933l-95.26363 148.167669c-6.81753 10.544447.818104 24.54311 13.453261 24.54311h317.515133c13.08966 0 20.634394-14.998567 12.726058-25.543015l-63.448487-84.628282c-4.090518-5.454025-10.726248-7.362933-16.634775-5.908527l-53.813043-53.903943 25.906617-25.906617c11.907954 4.908622 25.361215 5.999427 38.814476 2.454311 24.179509-6.544829 40.996085-26.54292 44.4503-49.813425l-53.903943 14.453166c-6.54483 1.727107-13.18056-2.09071-14.998568-8.635539l-6.272128-23.452306c-1.727108-6.54483 2.090709-13.18056 8.635539-14.998568l53.994844-14.453165c-1.454407-1.727108-2.908814-3.363315-4.36322-4.908622-14.907667-14.998568-37.178268-21.816099-59.085267-15.907572-32.633247 8.726439-51.813234 41.995989-43.086794 74.629237.545402 1.908908 1.181705 3.817817 1.818008 5.726726l-26.361119 26.361119-38.632675-38.541774 19.81629-19.81629c5.544925-5.544925 5.544925-14.362265 0-19.816289l-29.724434-29.724435c-2.727013-2.817912-6.272129-4.181418-9.908145-4.181418zm66.4482 172.98348 54.994748 54.994749-33.36045 44.632101-47.450015-73.811133zm0 0" fill="none" stroke="#212121" stroke-linecap="round" stroke-linejoin="round" stroke-width="3" transform="matrix(.0429729 0 0 .0429729 0 9.239163)"/></svg>

<?xml version="1.0" encoding="UTF-8"?>
<svg xmlns="http://www.w3.org/2000/svg" xmlns:xlink="http://www.w3.org/1999/xlink" width="22px" height="22px" viewBox="0 0 22 22" version="1.1">
<defs>
<linearGradient id="linear0" gradientUnits="userSpaceOnUse" x1="254" y1="233.5" x2="254" y2="254.666672" gradientTransform="matrix(0.0429729,0,0,0.0429729,-0.00000262285,9.239165)">
<stop offset="0" style="stop-color:rgb(0%,0%,0%);stop-opacity:0.27451;"/>
<stop offset="1" style="stop-color:rgb(0%,0%,0%);stop-opacity:0;"/>
</linearGradient>
<radialGradient id="radial0" gradientUnits="userSpaceOnUse" cx="450.908936" cy="189.579361" fx="450.908936" fy="189.579361" r="21.166656" gradientTransform="matrix(0.000000119742,-0.0537161,-0.0966889,-0.0000000698078,35.839821,43.721791)">
<stop offset="0" style="stop-color:rgb(0%,0%,0%);stop-opacity:0.313726;"/>
<stop offset="0.222222" style="stop-color:rgb(0%,0%,0%);stop-opacity:0.27451;"/>
<stop offset="1" style="stop-color:rgb(0%,0%,0%);stop-opacity:0;"/>
</radialGradient>
<radialGradient id="radial1" gradientUnits="userSpaceOnUse" cx="450.908936" cy="189.579361" fx="450.908936" fy="189.579361" r="21.166656" gradientTransform="matrix(-0.000000119742,0.0537161,0.0966889,0.0000000698078,-14.009609,-5.175142)">
<stop offset="0" style="stop-color:rgb(0%,0%,0%);stop-opacity:0.313726;"/>
<stop offset="0.222222" style="stop-color:rgb(0%,0%,0%);stop-opacity:0.27451;"/>
<stop offset="1" style="stop-color:rgb(0%,0%,0%);stop-opacity:0;"/>
</radialGradient>
<radialGradient id="radial2" gradientUnits="userSpaceOnUse" cx="450.908936" cy="189.579361" fx="450.908936" fy="189.579361" r="21.166656" gradientTransform="matrix(-0.000000119742,-0.0537161,0.0966889,-0.0000000698078,-14.009609,43.721791)">
<stop offset="0" style="stop-color:rgb(0%,0%,0%);stop-opacity:0.313726;"/>
<stop offset="0.222222" style="stop-color:rgb(0%,0%,0%);stop-opacity:0.27451;"/>
<stop offset="1" style="stop-color:rgb(0%,0%,0%);stop-opacity:0;"/>
</radialGradient>
<radialGradient id="radial3" gradientUnits="userSpaceOnUse" cx="450.908936" cy="189.579361" fx="450.908936" fy="189.579361" r="21.166656" gradientTransform="matrix(0.000000119742,0.0537161,-0.0966889,0.0000000698078,35.839819,-5.175142)">
<stop offset="0" style="stop-color:rgb(0%,0%,0%);stop-opacity:0.313726;"/>
<stop offset="0.222222" style="stop-color:rgb(0%,0%,0%);stop-opacity:0.27451;"/>
<stop offset="1" style="stop-color:rgb(0%,0%,0%);stop-opacity:0;"/>
</radialGradient>
<linearGradient id="linear1" gradientUnits="userSpaceOnUse" x1="169.333328" y1="233.5" x2="169.333328" y2="-168.666656" gradientTransform="matrix(0.0429729,0,0,0.0429729,0,9.239163)">
<stop offset="0" style="stop-color:rgb(25.882354%,64.705884%,96.078432%);stop-opacity:1;"/>
<stop offset="1" style="stop-color:rgb(39.215687%,70.980394%,96.470588%);stop-opacity:1;"/>
</linearGradient>
<linearGradient id="linear2" gradientUnits="userSpaceOnUse" x1="254" y1="251.469208" x2="254" y2="-150.697464" gradientTransform="matrix(0.0429729,0,0,0.0429729,0,8.466976)">
<stop offset="0" style="stop-color:rgb(74.117649%,74.117649%,74.117649%);stop-opacity:1;"/>
<stop offset="1" style="stop-color:rgb(87.843138%,87.843138%,87.843138%);stop-opacity:1;"/>
</linearGradient>
</defs>
<g id="surface1">
<path style=" stroke:none;fill-rule:nonzero;fill:url(#linear0);" d="M 4.09375 19.207031 L 17.738281 19.207031 L 17.738281 20.214844 L 4.09375 20.214844 Z M 4.09375 19.207031 "/>
<path style=" stroke:none;fill-rule:nonzero;fill:url(#radial0);" d="M 17.738281 19.273438 L 19.554688 19.273438 L 19.554688 18.363281 L 17.738281 18.363281 Z M 17.738281 19.273438 "/>
<path style=" stroke:none;fill-rule:nonzero;fill:url(#radial1);" d="M 4.09375 19.273438 L 2.273438 19.273438 L 2.273438 20.183594 L 4.09375 20.183594 Z M 4.09375 19.273438 "/>
<path style=" stroke:none;fill-rule:nonzero;fill:url(#radial2);" d="M 4.09375 19.273438 L 2.273438 19.273438 L 2.273438 18.363281 L 4.09375 18.363281 Z M 4.09375 19.273438 "/>
<path style=" stroke:none;fill-rule:nonzero;fill:url(#radial3);" d="M 17.738281 19.273438 L 19.554688 19.273438 L 19.554688 20.183594 L 17.738281 20.183594 Z M 17.738281 19.273438 "/>
<path style=" stroke:none;fill-rule:nonzero;fill:url(#linear1);" d="M 3.183594 1.992188 L 18.648438 1.992188 C 19.148438 1.992188 19.554688 2.398438 19.554688 2.902344 L 19.554688 18.363281 C 19.554688 18.867188 19.148438 19.273438 18.648438 19.273438 L 3.183594 19.273438 C 2.679688 19.273438 2.273438 18.867188 2.273438 18.363281 L 2.273438 2.902344 C 2.273438 2.398438 2.679688 1.992188 3.183594 1.992188 Z M 3.183594 1.992188 "/>
<path style=" stroke:none;fill-rule:nonzero;fill:rgb(90.196079%,90.196079%,90.196079%);fill-opacity:0.392157;" d="M 3.183594 2.046875 C 2.679688 2.046875 2.273438 2.453125 2.273438 2.957031 L 2.273438 3.070312 C 2.273438 2.566406 2.679688 2.160156 3.183594 2.160156 L 18.648438 2.160156 C 19.152344 2.160156 19.554688 2.566406 19.554688 3.070312 L 19.554688 2.957031 C 19.554688 2.453125 19.152344 2.046875 18.648438 2.046875 Z M 3.183594 2.046875 "/>
<path style=" stroke:none;fill-rule:nonzero;fill:rgb(0%,0%,0%);fill-opacity:0.196078;" d="M 3.183594 19.214844 C 2.679688 19.214844 2.273438 18.8125 2.273438 18.308594 L 2.273438 18.191406 C 2.273438 18.695312 2.679688 19.101562 3.183594 19.101562 L 18.648438 19.101562 C 19.152344 19.101562 19.554688 18.695312 19.554688 18.191406 L 19.554688 18.308594 C 19.554688 18.8125 19.152344 19.214844 18.648438 19.214844 Z M 3.183594 19.214844 "/>
<path style="fill:none;stroke-width:3;stroke-linecap:round;stroke-linejoin:miter;stroke:rgb(12.941177%,12.941177%,12.941177%);stroke-opacity:1;stroke-miterlimit:4;" d="M 74.083834 -168.640791 L 433.958559 -168.640791 C 445.593812 -168.640791 455.047454 -159.187148 455.047454 -147.460995 L 455.047454 212.322829 C 455.047454 224.048982 445.593812 233.502625 433.958559 233.502625 L 74.083834 233.502625 C 62.357682 233.502625 52.904039 224.048982 52.904039 212.322829 L 52.904039 -147.460995 C 52.904039 -159.187148 62.357682 -168.640791 74.083834 -168.640791 Z M 74.083834 -168.640791 " transform="matrix(0.0429729,0,0,0.0429729,0,9.239163)"/>
<path style=" stroke:none;fill-rule:nonzero;fill:url(#linear2);" d="M 8.539062 3.765625 C 8.386719 3.765625 8.230469 3.824219 8.113281 3.945312 L 5.132812 6.925781 C 4.898438 7.160156 4.898438 7.542969 5.132812 7.777344 L 6.410156 9.054688 C 6.644531 9.289062 7.027344 9.289062 7.261719 9.054688 L 8.257812 8.0625 L 9.914062 9.71875 L 9.125 10.507812 L 8.765625 9.945312 C 8.636719 9.746094 8.417969 9.628906 8.1875 9.628906 C 7.953125 9.628906 7.734375 9.746094 7.609375 9.945312 L 3.515625 16.3125 C 3.222656 16.765625 3.550781 17.367188 4.09375 17.367188 L 17.738281 17.367188 C 18.300781 17.367188 18.625 16.722656 18.285156 16.269531 L 15.558594 12.632812 C 15.382812 12.398438 15.097656 12.316406 14.84375 12.378906 L 12.53125 10.0625 L 13.644531 8.949219 C 14.15625 9.160156 14.734375 9.207031 15.3125 9.054688 C 16.351562 8.773438 17.074219 7.914062 17.222656 6.914062 L 14.90625 7.535156 C 14.625 7.609375 14.339844 7.445312 14.261719 7.164062 L 13.992188 6.15625 C 13.917969 5.875 14.082031 5.589844 14.363281 5.511719 L 16.683594 4.890625 C 16.621094 4.816406 16.558594 4.746094 16.496094 4.679688 C 15.855469 4.035156 14.898438 3.742188 13.957031 3.996094 C 12.554688 4.371094 11.730469 5.800781 12.105469 7.203125 C 12.128906 7.285156 12.15625 7.367188 12.183594 7.449219 L 11.050781 8.582031 L 9.390625 6.925781 L 10.242188 6.074219 C 10.480469 5.835938 10.480469 5.457031 10.242188 5.222656 L 8.964844 3.945312 C 8.847656 3.824219 8.695312 3.765625 8.539062 3.765625 Z M 11.394531 11.199219 L 13.757812 13.5625 L 12.324219 15.480469 L 10.285156 12.308594 Z M 11.394531 11.199219 "/>
<path style=" stroke:none;fill-rule:nonzero;fill:rgb(100%,100%,100%);fill-opacity:0.916129;" d="M 8.539062 3.765625 C 8.386719 3.765625 8.230469 3.824219 8.113281 3.945312 L 5.132812 6.925781 C 4.949219 7.109375 4.90625 7.382812 5.011719 7.605469 C 5.042969 7.542969 5.082031 7.488281 5.132812 7.433594 L 8.113281 4.453125 C 8.230469 4.335938 8.386719 4.277344 8.539062 4.277344 C 8.695312 4.277344 8.847656 4.335938 8.964844 4.453125 L 10.242188 5.730469 C 10.296875 5.78125 10.335938 5.839844 10.363281 5.902344 C 10.46875 5.679688 10.429688 5.40625 10.242188 5.222656 L 8.964844 3.945312 C 8.847656 3.824219 8.695312 3.765625 8.539062 3.765625 Z M 14.617188 3.90625 C 14.398438 3.90625 14.175781 3.9375 13.957031 3.996094 C 12.699219 4.332031 11.90625 5.519531 12.027344 6.773438 C 12.132812 5.722656 12.871094 4.796875 13.957031 4.507812 C 14.800781 4.28125 15.65625 4.492188 16.28125 5 L 16.683594 4.890625 C 16.621094 4.816406 16.558594 4.746094 16.496094 4.679688 C 16.003906 4.1875 15.332031 3.898438 14.617188 3.90625 Z M 14.03125 6.292969 C 13.972656 6.40625 13.957031 6.535156 13.992188 6.664062 L 14.261719 7.675781 C 14.339844 7.957031 14.625 8.121094 14.90625 8.046875 L 17.078125 7.464844 C 17.148438 7.289062 17.195312 7.101562 17.222656 6.914062 L 14.90625 7.535156 C 14.625 7.609375 14.339844 7.445312 14.261719 7.164062 Z M 9.648438 7.179688 L 9.390625 7.433594 L 11.050781 9.09375 L 12.183594 7.957031 C 12.15625 7.878906 12.128906 7.796875 12.105469 7.710938 C 12.09375 7.664062 12.082031 7.613281 12.070312 7.5625 L 11.050781 8.582031 Z M 8.1875 9.628906 C 7.953125 9.628906 7.734375 9.746094 7.609375 9.945312 L 3.515625 16.3125 C 3.386719 16.511719 3.378906 16.742188 3.457031 16.9375 C 3.472656 16.898438 3.492188 16.859375 3.515625 16.820312 L 7.609375 10.453125 C 7.734375 10.257812 7.953125 10.136719 8.1875 10.136719 C 8.417969 10.136719 8.636719 10.257812 8.765625 10.453125 L 9.125 11.015625 L 9.914062 10.230469 L 9.660156 9.972656 L 9.125 10.507812 L 8.765625 9.945312 C 8.636719 9.746094 8.417969 9.628906 8.1875 9.628906 Z M 12.785156 10.320312 L 12.53125 10.574219 L 14.84375 12.886719 C 15.097656 12.824219 15.382812 12.910156 15.558594 13.140625 L 18.285156 16.78125 C 18.324219 16.828125 18.351562 16.882812 18.375 16.9375 C 18.457031 16.726562 18.441406 16.476562 18.285156 16.269531 L 15.558594 12.632812 C 15.382812 12.398438 15.097656 12.316406 14.84375 12.378906 Z M 10.484375 12.621094 L 10.285156 12.820312 L 12.324219 15.988281 L 13.757812 14.074219 L 13.539062 13.855469 L 12.324219 15.480469 Z M 10.484375 12.621094 "/>
<path style=" stroke:none;fill-rule:nonzero;fill:rgb(0%,0%,0%);fill-opacity:0.235294;" d="M 16.113281 4.960938 L 14.363281 5.429688 C 14.25 5.460938 14.15625 5.527344 14.085938 5.613281 L 14.0625 5.515625 C 13.980469 5.636719 13.953125 5.789062 13.992188 5.941406 L 14.085938 6.292969 C 14.15625 6.207031 14.25 6.144531 14.363281 6.113281 L 16.683594 5.492188 C 16.621094 5.417969 16.558594 5.347656 16.496094 5.28125 C 16.378906 5.164062 16.25 5.054688 16.113281 4.960938 Z M 10.3125 5.90625 C 10.292969 5.9375 10.269531 5.964844 10.242188 5.992188 L 9.796875 6.4375 L 9.734375 6.371094 L 9.390625 6.710938 L 9.796875 7.117188 L 10.242188 6.671875 C 10.453125 6.464844 10.476562 6.140625 10.3125 5.90625 Z M 12.046875 6.710938 C 12.011719 6.933594 12.003906 7.160156 12.027344 7.390625 L 12.183594 7.234375 C 12.15625 7.15625 12.128906 7.074219 12.105469 6.988281 C 12.082031 6.898438 12.0625 6.804688 12.046875 6.710938 Z M 17.222656 7.515625 L 16.996094 7.574219 C 16.675781 8.238281 16.082031 8.765625 15.3125 8.972656 C 14.734375 9.125 14.15625 9.078125 13.644531 8.867188 L 12.9375 9.574219 L 12.871094 9.507812 L 12.53125 9.851562 L 12.9375 10.257812 L 13.644531 9.550781 C 14.15625 9.757812 14.734375 9.808594 15.3125 9.652344 C 16.351562 9.375 17.074219 8.511719 17.222656 7.515625 Z M 5.0625 7.609375 C 4.898438 7.84375 4.921875 8.167969 5.132812 8.375 L 6.410156 9.65625 C 6.644531 9.890625 7.027344 9.890625 7.261719 9.65625 L 8.257812 8.660156 L 9.507812 9.914062 L 9.914062 9.503906 L 9.574219 9.164062 L 9.507812 9.230469 L 8.257812 7.980469 L 7.261719 8.972656 C 7.027344 9.207031 6.644531 9.207031 6.410156 8.972656 L 5.132812 7.695312 C 5.105469 7.667969 5.082031 7.640625 5.0625 7.609375 Z M 11.394531 11.117188 L 10.601562 11.910156 L 10.550781 11.828125 L 10.285156 12.097656 L 10.601562 12.589844 L 11.394531 11.800781 L 13.410156 13.816406 L 13.757812 13.351562 L 13.46875 13.058594 L 13.410156 13.132812 Z M 18.332031 16.941406 C 18.21875 17.140625 18.003906 17.285156 17.738281 17.285156 L 4.09375 17.285156 C 3.828125 17.285156 3.613281 17.140625 3.496094 16.941406 C 3.238281 17.394531 3.5625 17.96875 4.09375 17.96875 L 17.738281 17.96875 C 18.273438 17.96875 18.59375 17.386719 18.332031 16.941406 Z M 18.332031 16.941406 "/>
<path style="fill:none;stroke-width:3;stroke-linecap:round;stroke-linejoin:round;stroke:rgb(12.941177%,12.941177%,12.941177%);stroke-opacity:1;stroke-miterlimit:4;" d="M 198.708297 -127.372004 C 195.163181 -127.372004 191.527165 -126.008498 188.800152 -123.190586 L 119.443139 -53.833572 C 113.989115 -48.379548 113.989115 -39.471308 119.443139 -34.017283 L 149.167573 -4.292849 C 154.621598 1.161176 163.529838 1.161176 168.983863 -4.292849 L 192.163467 -27.381553 L 230.705241 11.160221 L 212.343359 29.522104 L 203.980521 16.432445 C 200.980807 11.796524 195.890384 9.069512 190.52726 9.069512 C 185.073235 9.069512 179.982812 11.796524 177.073999 16.432445 L 81.810369 164.600114 C 74.992839 175.144561 82.628473 189.143224 95.26363 189.143224 L 412.778763 189.143224 C 425.868423 189.143224 433.413157 174.144657 425.504821 163.600209 L 362.056334 78.971927 C 357.965816 73.517902 351.330086 71.608994 345.421559 73.0634 L 291.608516 19.159457 L 317.515133 -6.74716 C 329.423087 -1.838538 342.876348 -0.747733 356.329609 -4.292849 C 380.509118 -10.837678 397.325694 -30.835769 400.779909 -54.106274 L 346.875966 -39.653108 C 340.331136 -37.926001 333.695406 -41.743818 331.877398 -48.288647 L 325.60527 -71.740953 C 323.878162 -78.285783 327.695979 -84.921513 334.240809 -86.739521 L 388.235653 -101.192686 C 386.781246 -102.919794 385.326839 -104.556001 383.872433 -106.101308 C 368.964766 -121.099876 346.694165 -127.917407 324.787166 -122.00888 C 292.153919 -113.282441 272.973932 -80.012891 281.700372 -47.379643 C 282.245774 -45.470735 282.882077 -43.561826 283.51838 -41.652917 L 257.157261 -15.291798 L 218.524586 -53.833572 L 238.340876 -73.649862 C 243.885801 -79.194787 243.885801 -88.012127 238.340876 -93.466151 L 208.616442 -123.190586 C 205.889429 -126.008498 202.344313 -127.372004 198.708297 -127.372004 Z M 265.156497 45.611476 L 320.151245 100.606225 L 286.790795 145.238326 L 239.34078 71.427193 Z M 265.156497 45.611476 " transform="matrix(0.0429729,0,0,0.0429729,0,9.239163)"/>
</g>
</svg>
